X:322
T: MYS LIEB ISCH GAR WYT INNE
N: E1472
O: Europa, Mitteleuropa, Schweiz, Emmental
R: Staende -, Hirten -, Alpen - Lied, Kuhreihen
M: 2/4
L: 1/16
K: G
Bc | d3cB2BG | A2A2z2
Bc | dd^cdB2AG | A4z2
AG | F2D2G2A2 | BAG2z2
Bc | d3cB2A2 | G4
d2e^c | d2e^cd2ec | d4G4 | g2z4

@@@ Tune index: 5006
